assets/imgs/bar_dia.svg

<svg width="30" height="30" viewBox="0 0 30 30" fill="none" xmlns="http://www.w3.org/2000/svg">
<path d="M23.9196 5.38837C24.9648 6.75387 28.4 11.2772 28.4 11.7435C28.4 12.2935 16.0412 27 15.4804 27C14.9196 27 2 12.2935 2 11.7435C2 11.2772 5.43519 6.75387 6.48042 5.38837C6.66882 5.14224 6.96011 5 7.27007 5H11.9755H18.4245H23.1299C23.4399 5 23.7312 5.14224 23.9196 5.38837Z" fill="white"/>
<path d="M28.4 11.7435C28.4 11.2772 24.9648 6.75387 23.9196 5.38837C23.7312 5.14224 23.4399 5 23.1299 5H18.4245M28.4 11.7435C28.4 12.2935 16.0412 27 15.4804 27M28.4 11.7435H20.8078M15.4804 27C14.9196 27 2 12.2935 2 11.7435M15.4804 27C15.4804 26.45 9.87255 11.7435 9.87255 11.7435M15.4804 27C15.4804 26.45 20.8078 11.7435 20.8078 11.7435M2 11.7435C2 11.2772 5.43519 6.75387 6.48042 5.38837C6.66882 5.14224 6.96011 5 7.27007 5H11.9755M2 11.7435H9.87255M11.9755 5L9.87255 11.7435M11.9755 5H18.4245M9.87255 11.7435H20.8078M20.8078 11.7435L18.4245 5" stroke="#4B4B4B" stroke-width="1.5" stroke-linecap="round"/>
<path d="M28.4 11.7435C28.4 11.2772 24.9648 6.75387 23.9196 5.38837C23.7312 5.14224 23.4399 5 23.1299 5H18.4245H11.9755H7.27007C6.96011 5 6.66882 5.14224 6.48042 5.38837C5.43519 6.75387 2 11.2772 2 11.7435C2 12.2935 14.9196 27 15.4804 27C16.0412 27 28.4 12.2935 28.4 11.7435Z" stroke="#4B4B4B" stroke-width="2" stroke-linecap="round"/>
</svg>

<svg width="30" height="30" fill="none" xmlns="http://www.w3.org/2000/svg"><path d="M23.92 5.388c1.045 1.366 4.48 5.89 4.48 6.355C28.4 12.293 16.041 27 15.48 27 14.92 27 2 12.293 2 11.743c0-.466 3.435-4.99 4.48-6.355A.992.992 0 0 1 7.27 5h15.86c.31 0 .601.142.79.388z" fill="#fff"/><path d="M28.4 11.743c0-.466-3.435-4.99-4.48-6.355A.992.992 0 0 0 23.13 5h-4.706m9.976 6.743C28.4 12.293 16.041 27 15.48 27M28.4 11.743h-7.592M15.48 27C14.92 27 2 12.293 2 11.743M15.48 27c0-.55-5.607-15.257-5.607-15.257M15.48 27c0-.55 5.328-15.257 5.328-15.257M2 11.743c0-.466 3.435-4.99 4.48-6.355A.992.992 0 0 1 7.27 5h4.706M2 11.743h7.873M11.976 5l-2.103 6.743M11.976 5h6.448m-8.551 6.743h10.935m0 0L18.424 5" stroke="#4B4B4B" stroke-width="1.5" stroke-linecap="round"/><path d="M28.4 11.743c0-.466-3.435-4.99-4.48-6.355A.992.992 0 0 0 23.13 5H7.27a.992.992 0 0 0-.79.388C5.435 6.754 2 11.278 2 11.743 2 12.293 14.92 27 15.48 27c.561 0 12.92-14.707 12.92-15.257z" stroke="#4B4B4B" stroke-width="2" stroke-linecap="round"/></svg>
